battery-10-bluetooth.svg

<svg fill="currentColor" viewBox="0 0 24 24"><path d="M5 2v2H3.33A1.33 1.33 0 0 0 2 5.33v15.34C2 21.4 2.6 22 3.33 22h9.34c.73 0 1.33-.6 1.33-1.33V5.33A1.33 1.33 0 0 0 12.67 4H11V2zM4 6h8v12H4zm15 2v3.79L16.71 9.5l-.71.71L18.79 13 16 15.79l.71.71L19 14.21V18h.5l2.85-2.86L20.21 13l2.14-2.15L19.5 8zm1 1.91.94.94-.94.94zm0 4.3.94.93-.94.94z"/></svg>

<svg  viewBox="0 0 24 24" fill="currentColor"><path  d="M5,2V4H3.33A1.33,1.33 0 0,0 2,5.33V20.67C2,21.4 2.6,22 3.33,22H12.67C13.4,22 14,21.4 14,20.67V5.33A1.33,1.33 0 0,0 12.67,4H11V2H5M4,6H12V18H4V6M19,8V11.79L16.71,9.5L16,10.21L18.79,13L16,15.79L16.71,16.5L19,14.21V18H19.5L22.35,15.14L20.21,13L22.35,10.85L19.5,8H19M20,9.91L20.94,10.85L20,11.79V9.91M20,14.21L20.94,15.14L20,16.08V14.21Z"/></svg>
